X:1
T:Badinerie
C:Johann Sebastian Bach
M:2/4
L:1/16
Q:1/4=120
K:Bm
% Orchestral Suite No. 2 in B minor, BWV 1067
B2A2|F2E2D2C2|B2A2^G2F2|E2F2^G2A2|B8|
B2c2d2e2|f2e2d2c2|B2A2^G2F2|E8|
^G2A2B2c2|d2c2B2A2|^G2F2E2D2|C8|
E2F2^G2A2|B2c2d2e2|f4d4|B8|]
